!!!!SEGMENT: pl-wn--sd-xvi-qu-273--069_gomolka-mikolaj--ratuj-mie-panie-bo-zlych-przygod-nawalnosci.krn
!!!cenid: 15xx:274
!!!COM: Gomółka, Mikołaj
!!!COM-rismid: pe30013343
!!!CDT: ~1535->1591/04/30
!!!CNT: Polish
!!!GTL: Melodiae na psalterz polski
!!!OTL: LXIX. Ratuj mię, Panie, bo złych przygód nawałności
!!!ONB: PSALM LXIX. Salvum me fac deus.
!!!PDT: 1580
!!!AGN: Sacred
!!!SMS-siglum: PL-Wn
!!!SMS-shelfmark: SD XVI.Qu.273
!!!SMS-shelfwork: 069 G
!!!NIFC-rismid:
!!!ONB-nifc: Melodiae na psalterz polski
**kern	**text	**kern	**text	**kern	**text	**kern	**text
*part4	*part4	*part3	*part3	*part2	*part2	*part1	*part1
*staff4	*staff4	*staff3	*staff3	*staff2	*staff2	*staff1	*staff1
*clefF4	*	*clefC3	*	*clefC2	*	*clefC1	*
*k[]	*	*k[]	*	*k[]	*	*k[]	*
*E:	*	*E:	*	*E:	*	*E:	*
*M2/1	*	*M2/1	*	*M2/1	*	*M2/1	*
*met(C|)	*	*met(C|)	*	*met(C|)	*	*met(C|)	*
*I"BASSUS.	*	*I"TENOR.	*	*I"ALTUS.	*	*I"CANTUS.	*
=1-	=1	=1-	=1	=1-	=1	=1-	=1
1D/	RA-	1d\	RA-	1f\	RA-	1a\	RA-
2.A\	-tuy	2c/	-tuy	2e/	-tuy	2a\	-tuy
.	.	2c/	mię,	2e/	mię,	2a\	mię,
4G\	mię	.	.	.	.	.	.
=2-	=2	=2-	=2	=2-	=2	=2-	=2
2F\	pá-	2f\	pá-	2a\	pá-	1cc\	pá-
2C/	-(nie,)	2e\	-(nie,)	2g\	-(nie,)	.	.
1D/	bo	2.d\	bo	1f\	bo	2b\	-(nie,)
.	.	.	.	.	.	2a\	bo
.	.	4c/	.	.	.	.	.
=3-	=3	=3-	=3	=3-	=3	=3-	=3
2.E\	złych	4B/	złych	1e\	złych	2a\	zł(ych)
.	.	4A/	.	.	.	.	.
.	.	2B/	przy-	.	.	2g#X/	przy-
4D/	.	.	.	.	.	.	.
2C#X/	przy-	1A/	-(gód)	2e/	przy-	1a\	-(gód)
2D/	-(gód)	.	.	4d/	-(gód)	.	.
.	.	.	.	4c/	.	.	.
=4-	=4	=4-	=4	=4-	=4	=4-	=4
2E\	na-	2r	.	2B/	na-	2gny/	na-
2F\	-wáł-	2c/	na-	2A/	-wál--	2a\	-wál-
1E\	-(no-	2G/	-wáł-	2.e/	-(no-	1b\	-(no-
.	.	2G/	-(no-	.	.	.	.
.	.	.	.	4d/	.	.	.
=5-	=5	=5-	=5	=5-	=5	=5-	=5
2AA/	-śći)	2A/	-śći)	2c#X/	-śći)	2a\	-śći)
2D/	Się-	2A/	Się-	2f\	Się-	2a\	Się-
2C#X/	-gá-	2A/	-gá-	2e/	-gá-	2a\	-gá-
2D/	-(ią)	2A/	-(ią)	2d/	-ią	2a\	-ią
=6-	=6	=6-	=6	=6-	=6	=6-	=6
2AA/	we	2A/	we	2cny/	we	1a\	we
1F\	mnie	1A/	mnie	2.c/	mnie	.	.
.	.	.	.	.	.	2a\	m(nie)
.	.	.	.	4d/	.	.	.
2E\	o-	2c/	o-	2e/	o-	2g/	o-
=7-	=7	=7-	=7	=7-	=7	=7-	=7
2D/	-stá-	2F/	-stá-	2A/	-stá-	2a\	-stá-
2.Cny/	-(tnich)	2.E/	-(tnich)	2e/	-(tnich)	2cc\	-tnich
.	.	.	.	2c/	.	1g\	ko-
4D/	.	4F/	.	.	.	.	.
2E\	ko-	2G/	ko-	2B/	ko-	.	.
=8-	=8	=8-	=8	=8-	=8	=8-	=8
*000/left	*	*	*	*	*	*000/left	*
000EE/	-śći.	000G#X/	-śći.	000B/	-śći.	000e/	-śći.
==	==	==	==	==	==	==	==
*-	*-	*-	*-	*-	*-	*-	*-
!!!RDF**kern: l = terminal long
!!!system-decoration: s1,s2,s3,s4
!!!ENC: Marta Lawrence
!!!END: 2020-02-13
!!!URL-scan: https://polona.pl/item/melodiae-na-psalterz-polski,Nzk3MTM4ODQ/170 Scan on Polona
!!!IIIF: https://polona.pl/iiif/item/Nzk3MTM4ODQ/manifest.json
